X:179
T:Charlie Hunter #1
C:Joe Buchanan's Scottish Tome - Page 270.2
I:270 2
Z:Carl Allison
R:Jig
L:1/8
M:6/8
K:D
DFA GBd | Adf a2 g | fed Bcd | ecA GFE | 
DFA GBd | Adf a2 g | fef gec | edd d2 |1 A :| 
|: f/g/ | afd d2 c | BGG G2 F | E^GB e2 d | cAA Aag | 
fdA FDF | GBd g2 g | fef gec | edd d2 :| 

